app/images/facebook-icon.svg

<svg xmlns="http://www.w3.org/2000/svg" viewBox="-5 -5 60 60" enable-background="new -5 -5 60 60"><path fill="#fff" d="M29.7 55h-11.2v-30h-7.5v-10.3h7.4v-6.1c.1-8.4 2.3-13.6 12.3-13.6h8.3v10.3h-5.2c-3.8 0-4.1 1.4-4.1 4.2v5.2h9.3l-1.1 10.3h-8.2v30z"/></svg>

<?xml version="1.0" encoding="utf-8"?>
<!-- Generator: Adobe Illustrator 17.1.0, SVG Export Plug-In . SVG Version: 6.00 Build 0)  -->
<!DOCTYPE svg PUBLIC "-//W3C//DTD SVG 1.1//EN" "http://www.w3.org/Graphics/SVG/1.1/DTD/svg11.dtd">
<svg version="1.1" id="Layer_1" xmlns="http://www.w3.org/2000/svg" xmlns:xlink="http://www.w3.org/1999/xlink" x="0px" y="0px"
	 viewBox="-5 -5 60 60" enable-background="new -5 -5 60 60" xml:space="preserve">
<path fill="#FFFFFF" d="M29.7,55H18.5V25H11V14.7h7.4V8.6C18.5,0.2,20.7-5,30.7-5H39V5.3h-5.2c-3.8,0-4.1,1.4-4.1,4.2v5.2H39
	L37.9,25h-8.2L29.7,55z"/>
</svg>
